<?xml version="1.0" encoding="UTF-8"?>
<map version="1.10" tiledversion="1.12.2" orientation="orthogonal" renderorder="right-down" width="20" height="15" tilewidth="8" tileheight="8" infinite="0" nextlayerid="2" nextobjectid="1">
 <tileset firstgid="1" source="Dungeon Gathering Free Version/Set 1.tsx"/>
 <layer id="1" name="Capa de patrones 1" width="20" height="15">
  <data encoding="csv">
795,796,796,796,796,796,796,796,796,796,796,796,796,796,796,796,796,796,796,800,
851,846,846,846,846,846,846,846,846,846,846,846,846,846,846,846,846,846,846,856,
851,846,846,846,846,846,846,846,846,846,846,846,846,846,846,846,846,846,846,856,
851,846,846,846,846,846,846,846,846,846,846,846,846,846,846,846,846,846,846,856,
851,846,846,846,846,846,846,846,846,846,846,846,846,846,846,846,846,846,846,856,
851,846,846,846,846,846,846,846,846,846,846,846,846,846,846,846,846,846,846,856,
851,846,846,846,846,846,846,846,846,846,846,846,846,846,846,846,846,846,846,856,
851,846,846,846,846,846,846,846,846,846,846,846,846,846,846,846,846,846,846,856,
851,846,846,846,846,846,846,846,846,846,846,846,846,846,846,846,846,846,846,856,
851,846,846,846,846,846,846,846,846,846,846,846,846,846,846,846,846,846,846,856,
851,846,846,846,846,846,846,846,846,846,846,846,846,846,846,846,846,846,846,856,
851,846,846,846,846,846,846,846,846,846,846,846,846,846,846,846,846,846,846,856,
851,846,846,846,846,846,846,846,846,846,846,846,846,846,846,846,846,846,846,856,
851,846,846,846,846,846,846,846,846,846,846,846,846,846,846,846,846,846,846,856,
1019,1020,1020,1020,1020,1020,1020,1020,1020,1020,1020,1020,1020,1020,1020,1020,1020,1020,1020,1024
</data>
 </layer>
</map>
