<?xml version="1.0" encoding="UTF-8"?>
<map version="1.10" tiledversion="1.12.2" orientation="orthogonal" renderorder="right-down" width="20" height="15" tilewidth="8" tileheight="8" infinite="0" nextlayerid="5" nextobjectid="1">
 <editorsettings>
  <export target="Mapa.json" format="json"/>
 </editorsettings>
 <tileset firstgid="1" source="Dungeon Gathering Free Version/Set 1.tsx"/>
 <tileset firstgid="2241" source="16x16-RPG-characters/preview.tsx"/>
 <tileset firstgid="2241" source="03-soldier.tsx"/>
 <tileset firstgid="2625" source="craftpix-net-363992-free-top-down-orc-game-character-pixel-art/PNG/Orc3/Without_shadow/orc3_run_without_shadow.tsx"/>
 <layer id="2" name="Funcional" width="20" height="15">
  <data encoding="csv">
910,910,910,910,910,910,910,910,910,910,910,910,910,910,910,910,910,910,910,910,
910,652,652,652,652,652,652,652,652,652,652,652,652,652,652,652,652,652,652,910,
910,652,652,652,652,652,652,652,652,652,652,652,652,652,652,652,652,652,652,910,
910,652,652,652,652,652,652,652,652,652,652,652,652,652,652,652,652,652,652,910,
910,652,652,652,652,652,652,652,652,652,652,652,652,652,652,652,652,652,652,910,
910,652,652,652,652,652,652,652,652,652,652,652,652,652,652,652,652,652,652,910,
910,652,652,652,652,652,652,652,652,652,652,652,652,652,652,652,652,652,652,910,
910,652,652,652,652,652,652,652,652,652,652,652,652,652,652,652,652,652,652,910,
910,652,652,652,652,652,652,652,652,652,652,652,652,652,652,652,652,652,652,910,
910,652,652,652,652,652,652,652,652,652,652,652,652,652,652,652,652,652,652,910,
910,652,652,652,652,652,652,652,652,652,652,652,652,652,652,652,652,652,652,910,
910,652,652,652,652,652,652,652,652,652,652,652,652,652,652,652,652,652,652,910,
910,652,652,652,652,652,652,652,652,652,652,652,652,652,652,652,652,652,652,910,
910,652,652,652,652,652,652,652,652,652,652,652,652,652,652,652,652,652,652,910,
910,910,910,910,910,910,910,910,910,910,910,910,910,910,910,910,910,910,910,910
</data>
 </layer>
 <layer id="1" name="Visual" width="20" height="15">
  <data encoding="csv">
795,796,796,796,796,796,796,796,796,796,796,796,796,796,796,796,796,796,796,800,
851,846,846,846,846,846,846,846,846,846,846,846,846,846,846,846,846,846,846,856,
851,846,846,846,846,846,846,846,846,846,846,846,846,846,846,846,846,846,846,856,
851,846,846,846,846,846,846,846,846,846,846,846,846,846,846,846,846,846,846,856,
851,846,846,846,846,846,846,846,846,846,846,846,846,846,846,846,846,846,846,856,
851,846,846,846,846,846,846,846,846,846,846,846,846,846,846,846,846,846,846,856,
851,846,846,846,846,846,846,846,846,846,846,846,846,846,846,846,846,846,846,856,
851,846,846,846,846,846,846,846,846,846,846,846,846,846,846,846,846,846,846,856,
851,846,846,846,846,846,846,846,846,846,846,846,846,846,846,846,846,846,846,856,
851,846,846,846,846,846,846,846,846,846,846,846,846,846,846,846,846,846,846,856,
851,846,846,846,846,846,846,846,846,846,846,846,846,846,846,846,846,846,846,856,
851,846,846,846,846,846,846,846,846,846,846,846,846,846,846,846,846,846,846,856,
851,846,846,846,846,846,846,846,846,846,846,846,846,846,846,846,846,846,846,856,
851,846,846,846,846,846,846,846,846,846,846,846,846,846,846,846,846,846,846,856,
1019,1020,1020,1020,1020,1020,1020,1020,1020,1020,1020,1020,1020,1020,1020,1020,1020,1020,1020,1024
</data>
 </layer>
 <layer id="3" name="Items" width="20" height="15">
  <data encoding="csv">
0,0,0,0,0,0,0,0,0,0,0,0,0,0,0,0,0,0,0,0,
0,0,0,0,0,0,0,0,0,0,0,0,0,0,0,0,0,0,0,0,
0,0,0,0,0,0,0,0,0,0,0,0,0,0,0,0,0,0,0,0,
0,0,0,0,0,0,0,0,0,0,0,0,0,0,0,0,0,0,0,0,
0,0,0,0,0,0,0,0,0,0,0,0,0,0,0,0,0,0,0,0,
0,0,0,0,0,0,0,0,0,0,0,0,0,0,0,0,0,0,0,0,
0,0,0,0,0,0,0,0,0,0,0,0,0,0,0,0,0,0,0,0,
0,0,0,0,0,0,0,0,0,0,0,0,0,0,0,0,0,0,0,0,
0,0,0,0,0,0,0,0,0,0,0,0,0,0,0,0,0,0,0,0,
0,0,0,0,0,0,0,0,0,0,0,0,0,0,0,0,0,0,0,0,
0,0,0,0,0,0,0,0,0,0,0,0,0,0,0,0,0,0,0,0,
0,0,0,0,0,0,0,0,0,0,0,0,0,0,0,0,0,0,0,0,
0,0,0,0,0,0,0,0,0,0,0,0,0,0,0,0,0,0,0,0,
0,0,0,0,0,0,0,0,0,0,0,0,0,0,0,0,0,0,0,0,
0,0,0,0,0,0,0,0,0,0,0,0,0,0,0,0,0,0,0,0
</data>
 </layer>
 <layer id="4" name="Player" width="20" height="15">
  <data encoding="csv">
0,0,0,0,0,0,0,0,0,0,0,0,0,0,0,0,0,0,0,0,
0,2241,2242,0,0,0,0,0,0,0,0,0,0,0,2626,2627,2628,2629,2630,0,
0,2265,2266,0,0,0,0,0,0,0,0,0,0,0,2690,2691,2692,2693,2694,0,
0,0,0,0,0,0,0,0,0,0,0,0,0,0,2754,2755,2756,2757,2758,0,
0,0,0,0,0,0,0,0,0,0,0,0,0,0,2818,2819,2820,2821,2822,0,
0,0,0,0,0,0,0,0,0,0,0,0,0,0,2882,2883,2884,2885,2886,0,
0,0,0,0,0,0,0,0,0,0,0,0,0,0,2946,2947,2948,2949,2950,0,
0,0,0,0,0,0,0,0,0,0,0,0,0,0,0,0,0,0,0,0,
0,0,0,0,0,0,0,0,0,0,0,0,0,0,0,0,0,0,0,0,
0,0,0,0,0,0,0,0,0,0,0,0,0,0,0,0,0,0,0,0,
0,0,0,0,0,0,0,0,0,0,0,0,0,0,0,0,0,0,0,0,
0,0,0,0,0,0,0,0,0,0,0,0,0,0,0,0,0,0,0,0,
0,0,0,0,0,0,0,0,0,0,0,0,0,0,0,0,0,0,0,0,
0,0,0,0,0,0,0,0,0,0,0,0,0,0,0,0,0,0,0,0,
0,0,0,0,0,0,0,0,0,0,0,0,0,0,0,0,0,0,0,0
</data>
 </layer>
</map>
