{ "compressionlevel":-1,
 "height":15,
 "infinite":false,
 "layers":[
        {
         "data":[795, 796, 796, 796, 796, 796, 796, 796, 796, 796, 796, 796, 796, 796, 796, 796, 796, 796, 796, 800,
            851, 846, 846, 846, 846, 846, 846, 846, 846, 846, 846, 846, 846, 846, 846, 846, 846, 846, 846, 856,
            851, 846, 846, 846, 846, 846, 846, 846, 846, 846, 846, 846, 846, 846, 846, 846, 846, 846, 846, 856,
            851, 846, 846, 846, 846, 846, 846, 846, 846, 846, 846, 846, 846, 846, 846, 846, 846, 846, 846, 856,
            851, 846, 846, 846, 846, 846, 846, 846, 846, 846, 846, 846, 846, 846, 846, 846, 846, 846, 846, 856,
            851, 846, 846, 846, 846, 846, 846, 846, 846, 846, 846, 846, 846, 846, 846, 846, 846, 846, 846, 856,
            851, 846, 846, 846, 846, 846, 846, 846, 846, 846, 846, 846, 846, 846, 846, 846, 846, 846, 846, 856,
            851, 846, 846, 846, 846, 846, 846, 846, 846, 846, 846, 846, 846, 846, 846, 846, 846, 846, 846, 856,
            851, 846, 846, 846, 846, 846, 846, 846, 846, 846, 846, 846, 846, 846, 846, 846, 846, 846, 846, 856,
            851, 846, 846, 846, 846, 846, 846, 846, 846, 846, 846, 846, 846, 846, 846, 846, 846, 846, 846, 856,
            851, 846, 846, 846, 846, 846, 846, 846, 846, 846, 846, 846, 846, 846, 846, 846, 846, 846, 846, 856,
            851, 846, 846, 846, 846, 846, 846, 846, 846, 846, 846, 846, 846, 846, 846, 846, 846, 846, 846, 856,
            851, 846, 846, 846, 846, 846, 846, 846, 846, 846, 846, 846, 846, 846, 846, 846, 846, 846, 846, 856,
            851, 846, 846, 846, 846, 846, 846, 846, 846, 846, 846, 846, 846, 846, 846, 846, 846, 846, 846, 856,
            1019, 1020, 1020, 1020, 1020, 1020, 1020, 1020, 1020, 1020, 1020, 1020, 1020, 1020, 1020, 1020, 1020, 1020, 1020, 1024],
         "height":15,
         "id":1,
         "name":"Capa de patrones 1",
         "opacity":1,
         "type":"tilelayer",
         "visible":true,
         "width":20,
         "x":0,
         "y":0
        }],
 "nextlayerid":2,
 "nextobjectid":1,
 "orientation":"orthogonal",
 "renderorder":"right-down",
 "tiledversion":"1.12.2",
 "tileheight":8,
 "tilesets":[
        {
         "firstgid":1,
         "source":"Dungeon Gathering Free Version\/Set 1.tsx"
        }],
 "tilewidth":8,
 "type":"map",
 "version":"1.10",
 "width":20
}